icons/omega.svg

<svg viewBox="0 0 24 24" fill="currentColor" xmlns="http://www.w3.org/2000/svg">
    <path d="M14 20V17.8432C15.8631 16.6512 17.5 13.9677 17.5 10.8844C17.5 7.8107 15.5 4.85516 12 4.85516C8.5 4.85516 6.5 7.8107 6.5 10.8844C6.5 13.9677 8.13687 16.6512 10 17.8432V20H3V18H7.7597C5.66635 16.5054 4 13.9889 4 10.8844C4 6.24653 7.5 3 12 3C16.5 3 20 6.24653 20 10.8844C20 13.9889 18.3336 16.5054 16.2403 18H21V20H14Z"/>
</svg>

<svg xmlns="http://www.w3.org/2000/svg" viewBox="0 0 24 24">
    <g>
        <path fill="none" d="M0 0h24v24H0z"/>
        <path fill-rule="nonzero" d="M14 20v-2.157c1.863-1.192 3.5-3.875 3.5-6.959 0-3.073-2-6.029-5.5-6.029s-5.5 2.956-5.5 6.03c0 3.083 1.637 5.766 3.5 6.958V20H3v-2h4.76C5.666 16.505 4 13.989 4 10.884 4 6.247 7.5 3 12 3s8 3.247 8 7.884c0 3.105-1.666 5.621-3.76 7.116H21v2h-7z"/>
    </g>
</svg>
